X: 28608
T: Music Drunkard, The
R: reel
M: 4/4
K: Eminor
|:ED|E2 B2 AFDF|E2 B2 B^cdF|E2 B2 AFDF|GEFD E2 ED|
E2 B2 AFDF|E2 B2 B^cdF|Eeed BAFA|GEFD E2:|
|:EF|GDGB AEAc|BddB cAFA|GDGB AEAc|BEED E2EF|
GDGB AEAc|BddB cAFA|GBed BAFA|GEFD E2:|

